X:1
T:F# minor William Billings, 1779 Revised after 1781
T:Isaac Watts, 1719 (Psalm 89) 88. 88. 88.
T:Mansfield No copyright.  Transcribed from The Psalm-Singer's Amusement.
%%score [ 1 2 3 4 ]
L:1/8
M:3/2
K:A
V:1 treble nm="Treble" snm="Tr."
V:2 treble nm="Counter" snm="C."
V:3 treble-8 nm="Tenor" snm="T."
V:4 bass nm="Bass" snm="B."
V:1
 c4 | (A3 B c4) e4 | c8 B4 | (A4 B4) c4 | e8 c4 | (A4 B4) c4 | c8 c4 | d8 c4 | c8 A4 | c8 c4 | %10
w: 1.~Think,|migh- * * ty|God, on|fee- * ble|man; How|few * his|hours! How|short his|span! Short|from the|
 (e3 d c4) c4 | (d2 c2 B2 c2) d4 | c8 e4 | (c4 B4) A4 | A8 B4 | (c4 d2 c2) B4 | c8 c4 | %17
w: cra- * * dle|to * * * the|grave; Who|can * se-|cure his|vit- * * al|breath A-|
 (e3 d c4) B4 | (A3 B c4) B4 | (c4 d4) c4 | c8 c4 | (c3 d e4) e4 | (c4 d4) c4 | (e3 d c4) c4 | %24
w: gainst * * the|bold * * de-|mands * of|death? With|skill * * to|fly, * or|power * * to|
 c8 |] %25
w: save?|
V:2
 F4 | F8 G4 | A8 G4 | (F4 G4) A4 | G8 F4 | E8 F4 | E8 F4 | F8 E4 | F8 F4 | A8 G4 | (A4 G4) F4 | %11
w: 2.~Lord,|shall it|be for|ev- * er|said, "The|race of|man was|on- ly|made for|sick- ness,|sor- * row,|
 (E4 F4) (G2 F2) | E8 G4 | (A4 G4) F4 | (E4 F4) (G2 E2) | F8 E4 | E8 E4 | E8 E4 | (E4 A4) G4 | %19
w: and * the *|dust?" Are|not * thy|ser- * vants *|day by|day Sent|to their|graves, * and|
 (F4 B4) G4 | A8 A4 | G8 G4 | (A4 G4) (F2 GA) | (G4 F4) ^E4 | F8 |] %25
w: turned * to|clay? Lord,|where's Thy|kind- * ness * *|to * the|just?|
V:3
 F4 | (c3 B A4) B4 | (c4 f4) e4 | (c4 B4) A4 | c8 c4 | (c4 B4) A4 | G8 (A2 Bc) | (B4 A4) G4 | %8
w: 3.~Hast|Thou * * not|prom- * ised|to * Thy|Son And|all * His|seed a * *|heav'n- * ly|
 F8 c4 | f8 e4 | (c4 B4) A4 | (B2 c2 d2 c2) (B2 A2) | G8 c4 | (A4 B4) c4 | (e3 d c4) B4 | %15
w: crown? But|flesh and|sense * in-|dulge * * * des- *|pair; For|ev- * er|bles- * * sed|
 (A4 B2 A2) G4 | A8 A4 | (c3 B A4) B4 | c8 d4 | (c4 f4) ^e4 | f8 f4 | (e3 d c4) B4 | (A4 B4) c4 | %23
w: be * * the|Lord, That|faith * * can|read His|ho- * ly|word, And|find * * a|res- * sur-|
 (B4 A4) G4 | F8 |] %25
w: rec- * tion|there.|
V:4
 F,4 | F,8 E,4 | (A,3 G, F,4) G,4 | (A,4 G,4) F,4 | C,8 F,4 | (A,4 G,4) F,4 | C,8 F,4 | B,,8 C,4 | %8
w: 4.~For|ev- er|bles- * * sed|be * the|Lord, Who|gives * His|saints a|long re-|
 F,,8 F,4 | F,8 C,4 | (A,,4 E,4) F,4 | (G,2 A,2 A,2 A,2) (G,2 F,2) | C,8 C,4 | (F,4 G,4) A,4 | %14
w: ward For|all their|toil, * re-|proach, * * * and *|pain: Let|all * be-|
 (C3 B, A,4) G,4 | (F,4 B,,4) E,4 | A,,8 A,,4 | A,,8 E,4 | (C,4 F,4) G,4 | (A,4 B,4) [C,C]4 | %20
w: low, * * and|all * a-|bove Join|to pro-|claim * Thy|wond- * rous|
 F,8 F,4 | C,8 E,4 | (F,4 G,4) A,4 | (E,4 F,4) C,4 | F,,8 |] %25
w: love, And|each re-|peat * their|loud * A-|men.|

